X: 15
T: Bully of the Town
L:1/8
M:2/4
S:Viola "Mom" Ruth - Pioneer Western Folk Tunes (1948)
Z:AK/Fiddler's Companion
K:G
D|D[GB][GB]>[GB]|[GB] [G2B2] [GB]|[GB][GB][G_B][G=B]|
G3F|[CE][C2E2][CE]|[Ge][G2e2][Ge]|cc c/B/A|(F2 F)(F/E/)|
D d3 ^c/=c/|ccBA|(G4|G3)||
|:(B/c/)|(d2 d)(3c/d/^d/|ed AB|c2 cA|F3 (A/B/)|(c2 c)(3B/c/^c/|
dc A_B|=B2 BG|D3G|(B2 B)(3A/B/c/|(d2 d)(3c/d/^d/|eecA|
E3_E|D d3 ^c/=c/|ccBA|(G4|G3:|

%%sep 1 1 500
